src/images/home.svg

<svg width="26" height="24" viewBox="0 0 26 24" fill="none" xmlns="http://www.w3.org/2000/svg">
<path d="M25.0286 6.80248L13.2417 0.438313C12.9816 0.298313 12.6701 0.298313 12.4099 0.438313L0.625393 6.80248C0.200726 7.03232 0.0420622 7.56315 0.271896 7.98898C0.429396 8.28065 0.731562 8.44747 1.0419 8.44747C1.1819 8.44747 1.32539 8.41247 1.45723 8.34247L2.40806 7.82914L4.30856 21.261C4.55823 22.6785 5.83456 23.6666 7.40956 23.6666H18.2386C19.8159 23.6666 21.0911 22.6773 21.3454 21.2318L23.2424 7.82681L24.1967 8.34247C24.6214 8.56764 25.1534 8.41247 25.3832 7.98781C25.6119 7.56431 25.4532 7.03348 25.0286 6.80248ZM19.6176 20.9576C19.4927 21.6646 18.7974 21.9166 18.2409 21.9166H7.41189C6.85189 21.9166 6.15773 21.6646 6.03756 20.9856L4.05189 6.94248L12.8252 2.20348L21.6009 6.94014L19.6176 20.9576Z" fill="black"/>
<path d="M8.4152 12.1854C8.4152 14.6168 10.3927 16.5954 12.8252 16.5954C15.2577 16.5954 17.2352 14.6168 17.2352 12.1854C17.2352 9.75411 15.2577 7.77544 12.8252 7.77544C10.3927 7.77544 8.4152 9.75411 8.4152 12.1854ZM15.4852 12.1854C15.4852 13.6531 14.2929 14.8454 12.8252 14.8454C11.3575 14.8454 10.1652 13.6531 10.1652 12.1854C10.1652 10.7178 11.3575 9.52544 12.8252 9.52544C14.2929 9.52544 15.4852 10.7178 15.4852 12.1854Z" fill="black"/>
</svg>

<svg width="26" height="24" fill="none" xmlns="http://www.w3.org/2000/svg"><path d="M25.029 6.802 13.242.438a.876.876 0 0 0-.832 0L.625 6.802a.876.876 0 0 0 .832 1.54l.951-.513 1.9 13.432c.25 1.418 1.527 2.406 3.102 2.406h10.829c1.577 0 2.852-.99 3.106-2.435l1.897-13.405.955.515a.88.88 0 0 0 1.186-.354.877.877 0 0 0-.354-1.186Zm-5.411 14.156c-.125.707-.82.959-1.377.959H7.41c-.56 0-1.253-.252-1.373-.931L4.052 6.942l8.773-4.739 8.776 4.737-1.983 14.018Z" fill="#000"/><path d="M8.415 12.185a4.415 4.415 0 0 0 4.41 4.41 4.415 4.415 0 0 0 4.41-4.41 4.415 4.415 0 0 0-4.41-4.41 4.415 4.415 0 0 0-4.41 4.41Zm7.07 0a2.662 2.662 0 0 1-2.66 2.66 2.662 2.662 0 0 1-2.66-2.66 2.662 2.662 0 0 1 2.66-2.66 2.662 2.662 0 0 1 2.66 2.66Z" fill="#000"/></svg>
